X: 17
T:Dry and Dusty
M:C|
L:1/8
R:Reel
K:D
S:https://tunearch.org/wiki/Dry_and_Dusty_(1)
AB|:d2 [df]d edBA|[d2f2] [d2f2] edBA|d2[df]d edBA|[A2f2] ([A2a2][A2a2])AB|
d2 [df]d edBA|[df]e[df]d edBA|d2((3BcB A)GFG|1A2 D4 AB:|2A2 D4 (3dcB|]
|:A2FD EDDE|F2 (A2A2)AB|A2 FD EDDE|F2(E2E2)((3dcB|
A2)FD EDDE|F2 (A2A2)((3ABc|d2)((3BcB A)GFG|1A2 D4 (3dcB :|2 A2 D6 |]

